material/.icons/material/email-plus.svg

<svg xmlns="http://www.w3.org/2000/svg" viewBox="0 0 24 24"><path d="M3 4c-1.11 0-2 .89-2 2v12a2 2 0 002 2h11.09c-.06-.33-.09-.66-.09-1a6 6 0 016-6c.34 0 .67.03 1 .09V6a2 2 0 00-2-2H3m0 2l8 5 8-5v2l-8 5-8-5V6m16 9v3h-3v2h3v3h2v-3h3v-2h-3v-3h-2z"/></svg>

<?xml version="1.0" encoding="UTF-8"?><!DOCTYPE svg PUBLIC "-//W3C//DTD SVG 1.1//EN" "http://www.w3.org/Graphics/SVG/1.1/DTD/svg11.dtd"><svg xmlns="http://www.w3.org/2000/svg" xmlns:xlink="http://www.w3.org/1999/xlink" version="1.1" id="mdi-email-plus" width="24" height="24" viewBox="0 0 24 24"><path d="M3,4C1.89,4 1,4.89 1,6V18A2,2 0 0,0 3,20H14.09C14.03,19.67 14,19.34 14,19A6,6 0 0,1 20,13C20.34,13 20.67,13.03 21,13.09V6C21,4.89 20.1,4 19,4H3M3,6L11,11L19,6V8L11,13L3,8V6M19,15V18H16V20H19V23H21V20H24V18H21V15H19Z" /></svg>
